X:176
T:Lady Caroline Bertie
O:No 176 William Clarke of Feltwell
M:2/4
L:1/16
K:D
FG|A2f2e2d2|dcdB A2FG|A2FG A2F2|F2A2A2 FG|A2f2e2d2|dcdB A2FG|A2FG A2F2|EDEF D4||(dc)(dB) A2F2|(dc)(dB) A2F2|(dc)(dB) A2F2|E2A2A2 (Bc)|(dc)(dB) .A2F2|dcdB A2F2|dcdB A2f2|(edef)d4||.f2(fd) .g2(ge)|.c2(cA) .a2(ag)|.f2(fd) .g2(ge)|.c2(cA)d4|.f2(fd) .g2(ge)|.c2(cA) .a2(af)|.f2(fd) .g2(ge)|.c2(cA)d4||

